X: 20685
T: the Preparation for a Retreat
%R: air, march
B: James Oswald "The Caledonian Pocket Companion" v.2 p.68 #5 (and p.68, top 2 staffs + 1 bar)
Z: 2019 John Chambers <jc:trillian.mit.edu>
M: 2/4
L: 1/16
K: Dmix
|:\
f4 dddd | dddd e2d2 | a4 ffff | a4 ffff |\
f4 dddd | dddd e2d2 | B4 AFFF | AEEE F2D2 :|
|:\
DDDD f2dd | f2dd f2dd | a4 ffff | a4 ffff |\
DDDD f2dd | f2dd f2dd | B4 AFFF | AEEE F2D2 :|
